X: 1
T: Flirtation Jig
S: Kerr's, from David Knight via David Wiesler
N: Originally a hornpipe, converted to jig by John Chambers
Z: 2005 John Chambers <jc:trillian.mit.edu>
%%slurgraces 1
R: jig
K: Am
M: 6/8
L: 1/8
|:"Am"    A2B  "E7"cdB | "Am"    Acd "E7"ecd | "Am"efe       cde |  "G"  d2G    GcB   \
| "Am"    A2B  "E7"cdB | "Am"    Acd "E7"ecd | "Am"efe   "E7"dcB | "Am"  c2A     A3  :|
| "Am"{^g}a2A      A3  | "Am"{^g}a2A "D7"A3  | "G"{f}g2G     G3  | "G"{f}g2G     G3   \
| "Am"{^g}a2A  {^g}a2A |  "G" {f}g2   {f}g2G | "F"   aef "E7"edB | "Am"  c2A     A3  |]
| "Am"{^g}a2A "/G#"A3  | "/G"{^g}a2A "D7"A3  | "G"{f}gGA     B2c |  "G"  d2c "E7"BA^G \
| "Am"    A2B  "E7"cdB | "Am"    Acd "E7"ecd | "Am"  efe "E7"dcB | "Am"  c2A     A3  |]
